src/assets/images/manual-review-icon-w.svg

<?xml version="1.0" encoding="UTF-8"?>
<svg width="24px" height="20px" viewBox="0 0 24 20" version="1.1" xmlns="http://www.w3.org/2000/svg" xmlns:xlink="http://www.w3.org/1999/xlink">
    <!-- Generator: Sketch 55.2 (78181) - https://sketchapp.com -->
    <title>data-table</title>
    <desc>Created with Sketch.</desc>
    <g id="Symbols" stroke="none" stroke-width="1" fill="none" fill-rule="evenodd">
        <g id="Icons/24px/ManualReviewW" transform="translate(0.000000, -2.000000)">
            <g id="data-table" transform="translate(0.000000, 2.000000)">
                <path d="M23.2741463,0 C22.7554185,0 0.968663415,0 0.702439024,0 C0.314505366,0 0,0.314505366 0,0.702439024 C0,1.52476098 0,17.6396956 0,18.497561 C0,18.8854946 0.314505366,19.2 0.702439024,19.2 L23.2741463,19.2 C23.66208,19.2 23.9765854,18.8854946 23.9765854,18.497561 C23.9765854,17.963239 23.9765854,1.23549659 23.9765854,0.702439024 C23.9765854,0.314505366 23.66208,0 23.2741463,0 Z M1.40487805,1.40487805 L5.19804878,1.40487805 L5.19804878,2.8097561 L1.40487805,2.8097561 L1.40487805,1.40487805 Z M3.27804878,17.795122 L1.40487805,17.795122 L1.40487805,9.36585366 L3.27804878,9.36585366 L3.27804878,17.795122 Z M3.27804878,7.96097561 L1.40487805,7.96097561 L1.40487805,7.02439024 L3.27804878,7.02439024 L3.27804878,7.96097561 Z M9.70925268,17.795122 L4.68292683,17.795122 L4.68292683,9.36585366 L9.70925268,9.36585366 L9.70925268,17.795122 Z M9.70925268,7.96097561 L4.68292683,7.96097561 L4.68292683,7.02439024 L9.70925268,7.02439024 L9.70925268,7.96097561 Z M16.1405034,17.795122 L11.1141307,17.795122 L11.1141307,9.36585366 L16.1405034,9.36585366 L16.1405034,17.795122 L16.1405034,17.795122 Z M16.1405034,7.96097561 L11.1141307,7.96097561 L11.1141307,7.02439024 L16.1405034,7.02439024 L16.1405034,7.96097561 L16.1405034,7.96097561 Z M22.5717073,17.795122 L17.5453815,17.795122 L17.5453815,9.36585366 L22.5717073,9.36585366 L22.5717073,17.795122 Z M22.5717073,7.96097561 L17.5453815,7.96097561 L17.5453815,7.02439024 L22.5717073,7.02439024 L22.5717073,7.96097561 Z" id="Shape" fill="#FFFFFF"></path>
                <path d="M13.4165854,4.21463415 L15.7580488,4.21463415 C16.1459824,4.21463415 16.4604878,3.90012878 16.4604878,3.51219512 C16.4604878,3.12426146 16.1459824,2.8097561 15.7580488,2.8097561 L13.4165854,2.8097561 C13.0286517,2.8097561 12.7141463,3.12426146 12.7141463,3.51219512 C12.7141463,3.90012878 13.0286517,4.21463415 13.4165854,4.21463415 Z" id="Path" fill="#1F496A" fill-rule="nonzero"></path>
                <path d="M18.5912195,4.21463415 L20.9326829,4.21463415 C21.3206166,4.21463415 21.635122,3.90012878 21.635122,3.51219512 C21.635122,3.12426146 21.3206166,2.8097561 20.9326829,2.8097561 L18.5912195,2.8097561 C18.2032859,2.8097561 17.8887805,3.12426146 17.8887805,3.51219512 C17.8887805,3.90012878 18.2032859,4.21463415 18.5912195,4.21463415 Z" id="Path" fill="#1F496A" fill-rule="nonzero"></path>
                <path d="M8.24195122,4.21463415 L10.5834146,4.21463415 C10.9713483,4.21463415 11.2858537,3.90012878 11.2858537,3.51219512 C11.2858537,3.12426146 10.9713483,2.8097561 10.5834146,2.8097561 L8.24195122,2.8097561 C7.85401756,2.8097561 7.5395122,3.12426146 7.5395122,3.51219512 C7.5395122,3.90012878 7.85401756,4.21463415 8.24195122,4.21463415 Z" id="Path" fill="#1F496A" fill-rule="nonzero"></path>
            </g>
        </g>
    </g>
</svg>

<?xml version="1.0" encoding="UTF-8"?>
<svg version="1.1" viewBox="0 0 24 20" xmlns="http://www.w3.org/2000/svg">
<title>data-table</title>
<desc>Created with Sketch.</desc>
<g fill="none" fill-rule="evenodd">
<g transform="translate(0 -2)">
<g transform="translate(0 2)">
<path d="m23.274 0h-22.572c-0.38793 0-0.70244 0.31451-0.70244 0.70244v17.795c0 0.38793 0.31451 0.70244 0.70244 0.70244h22.572c0.38793 0 0.70244-0.31451 0.70244-0.70244v-17.795c0-0.38793-0.31451-0.70244-0.70244-0.70244zm-21.869 1.4049h3.7932v1.4049h-3.7932v-1.4049zm1.8732 16.39h-1.8732v-8.4293h1.8732v8.4293zm0-9.8341h-1.8732v-0.93659h1.8732v0.93659zm6.4312 9.8341h-5.0263v-8.4293h5.0263v8.4293zm0-9.8341h-5.0263v-0.93659h5.0263v0.93659zm6.4313 9.8341h-5.0264v-8.4293h5.0264v8.4293zm0-9.8341h-5.0264v-0.93659h5.0264v0.93659zm6.4312 9.8341h-5.0263v-8.4293h5.0263v8.4293zm0-9.8341h-5.0263v-0.93659h5.0263v0.93659z" fill="#fff"/>
<path d="m13.417 4.2146h2.3415c0.38793 0 0.70244-0.31451 0.70244-0.70244s-0.31451-0.70244-0.70244-0.70244h-2.3415c-0.38793 0-0.70244 0.31451-0.70244 0.70244s0.31451 0.70244 0.70244 0.70244z" fill="#1F496A" fill-rule="nonzero"/>
<path d="m18.591 4.2146h2.3415c0.38793 0 0.70244-0.31451 0.70244-0.70244s-0.31451-0.70244-0.70244-0.70244h-2.3415c-0.38793 0-0.70244 0.31451-0.70244 0.70244s0.31451 0.70244 0.70244 0.70244z" fill="#1F496A" fill-rule="nonzero"/>
<path d="m8.242 4.2146h2.3415c0.38793 0 0.70244-0.31451 0.70244-0.70244s-0.31451-0.70244-0.70244-0.70244h-2.3415c-0.38793 0-0.70244 0.31451-0.70244 0.70244s0.31451 0.70244 0.70244 0.70244z" fill="#1F496A" fill-rule="nonzero"/>
</g>
</g>
</g>
</svg>
